resources/svg/double-caret-up-small.svg

<svg width="15" height="15" viewBox="0 0 15 15" fill="none" xmlns="http://www.w3.org/2000/svg">
<path fill-rule="evenodd" clip-rule="evenodd" d="M7.5 3.79291L10.2071 6.50001L9.5 7.20712L7.5 5.20712L5.5 7.20712L4.79289 6.50001L7.5 3.79291ZM7.5 6.79291L10.2071 9.50001L9.5 10.2071L7.5 8.20712L5.5 10.2071L4.79289 9.50001L7.5 6.79291Z" fill="black"/>
</svg>

<svg viewBox="0 0 15 15" fill="none" xmlns="http://www.w3.org/2000/svg" fill="currentColor"><path fill-rule="evenodd" clip-rule="evenodd" d="M7.5 3.793L10.207 6.5l-.707.707-2-2-2 2-.707-.707L7.5 3.793zm0 3L10.207 9.5l-.707.707-2-2-2 2-.707-.707L7.5 6.793z" fill="currentColor"/></svg>
